third_party/noto/noto_2/emoji_u1f5a5.svg

<svg enable-background="new 0 0 128 128" version="1.1" viewBox="0 0 128 128" xmlns="http://www.w3.org/2000/svg"><path d="m71.59 68.58h-12.84c0 20.36-4.21 28.52-4.21 28.52h21.26c0-0.01-4.21-8.17-4.21-28.52z" fill="#B7D5E5"/><path d="m39.41 98.17c-0.07-1.14 0.1-2.64 0.1-2.64s45.24-1.88 48.83-0.09c0 0 0.48 1.66 0.15 2.74-0.79 2.53-10.99 4.8-24.55 4.8s-24.37-2.16-24.53-4.81z" fill="#2F7889"/><ellipse cx="64" cy="95.96" rx="24.55" ry="4.8" fill="#B7D5E5"/><path d="m71.59 68.58h-12.84c0 6.64-0.45 11.98-1.05 16.16l15.31 2.3c-0.78-4.47-1.42-10.54-1.42-18.46z" fill="#69A1BA"/><path d="m55.49 91.46s-3.72 1.52-2.88 2.63c1.3 1.74 4.93 2.83 13.71 3.42 6.17 0.41 3.75 2.13-2.05 2.48-4.07 0.24-23.58 0.4-24.74-3.67-0.94-3.31 13.18-4.86 15.96-4.86z" fill="#eee"/><path d="m99.4 106.51h-70.91c-0.97 0-1.94 0.54-2.48 1.4l-7.78 10.7c-0.72 0.98-0.01 2.36 1.2 2.36h89.13c1.22 0 1.92-1.38 1.2-2.36l-7.88-10.8c-0.53-0.76-1.5-1.3-2.48-1.3z" fill="#eee"/><g fill="#69A1BA" opacity=".57"><polygon points="35.61 111.26 30.75 111.26 31.4 110.08 36.26 110.08"/><polygon points="43.28 111.26 38.42 111.26 38.96 110.08 44.03 110.08"/><polygon points="50.62 111.26 45.65 111.26 46.41 110.08 51.26 110.08"/><polygon points="57.85 111.26 52.99 111.26 53.75 110.08 58.39 110.08"/><polygon points="65.08 111.26 60.11 111.26 60.55 110.08 64.65 110.08"/><polygon points="72.31 111.26 67.45 111.26 66.91 110.08 71.56 110.08"/><polygon points="79.87 111.26 74.9 111.26 74.04 110.08 78.9 110.08"/><polygon points="87.1 111.26 82.13 111.26 81.27 110.08 86.24 110.08"/><polygon points="96.92 111.26 89.47 111.26 88.61 110.08 96.17 110.08"/><polygon points="93.14 113.21 98 113.21 97.14 111.91 92.17 111.91"/><polygon points="85.16 113.21 90.01 113.21 89.04 111.91 84.18 111.91"/><polygon points="77.82 113.21 82.67 113.21 81.92 111.91 76.95 111.91"/><polygon points="69.94 113.21 74.79 113.21 73.93 111.91 69.29 111.91"/><polygon points="62.92 113.21 67.78 113.21 67.24 111.91 63.14 111.91"/><polygon points="55.9 113.21 60.76 113.21 61.09 111.91 56.34 111.91"/><polygon points="48.24 113.21 53.1 113.21 53.75 111.91 49 111.91"/><polygon points="39.61 113.21 44.57 113.21 45.33 111.91 40.36 111.91"/><polygon points="29.68 113.21 37.02 113.21 37.77 111.91 30.32 111.91"/><polygon points="76.09 115.15 81.05 115.15 80.19 113.85 75.23 113.85"/><polygon points="68.32 115.15 73.17 115.15 72.53 113.85 67.89 113.85"/><polygon points="59.03 115.15 64 115.15 63.89 113.85 59.47 113.85"/><polygon points="50.29 115.15 55.26 115.15 55.69 113.85 50.94 113.85"/><polygon points="41.12 115.15 45.97 115.15 46.73 113.85 41.87 113.85"/><polygon points="28.7 115.15 38.53 115.15 39.28 113.85 29.46 113.85"/><polygon points="84.4 115.15 99.08 115.15 98.22 113.85 83.54 113.85"/><polygon points="95.52 117.09 100.48 117.09 99.51 115.8 94.55 115.8"/><polygon points="86.45 117.09 91.31 117.09 90.34 115.8 85.48 115.8"/><polygon points="47.27 117.09 80.62 117.09 79.87 115.8 48.02 115.8"/><polygon points="36.8 117.09 41.76 117.09 42.3 115.8 37.55 115.8"/><polygon points="27.52 117.09 32.37 117.09 32.91 115.8 28.16 115.8"/></g><path d="m108.69 124h-89.38c-0.88 0-1.64-0.76-1.64-1.62v-2.4h92.68v2.4c-0.01 0.86-0.78 1.62-1.66 1.62z" fill="#2F7889"/><path d="m99.4 107.52c0.61 0 1.3 0.36 1.67 0.88l8.22 11.27c0.05 0.06 0.05 0.13 0.02 0.2-0.04 0.07-0.09 0.1-0.17 0.1h-90.28c-0.08 0-0.13-0.03-0.17-0.1s-0.03-0.14 0.02-0.2l8.12-11.16 0.04-0.06c0.35-0.57 0.99-0.93 1.63-0.93h70.9m0-1.01h-70.91c-0.97 0-1.94 0.54-2.48 1.4l-8.12 11.16c-0.57 0.79-0.01 1.9 0.97 1.9h90.29c0.98 0 1.54-1.11 0.97-1.9l-8.22-11.27c-0.55-0.75-1.52-1.29-2.5-1.29z" fill="#B7D5E5"/><path d="m113.46 79.66h-98.92c-1.9 0-3.44-1.54-3.44-3.44v-67c0-1.9 1.54-3.44 3.44-3.44h98.91c1.9 0 3.44 1.54 3.44 3.44v67c0.01 1.9-1.53 3.44-3.43 3.44z" fill="#69A1BA"/><path d="m113.46 77.89h-98.92c-1.9 0-3.44-1.54-3.44-3.44v-67c0-1.9 1.54-3.44 3.44-3.44h98.91c1.9 0 3.44 1.54 3.44 3.44v67c0.01 1.89-1.53 3.44-3.43 3.44z" fill="#B7D5E5"/><radialGradient id="a" cx="46.465" cy="-5.1763" r="60.973" gradientUnits="userSpaceOnUse"><stop stop-color="#2F7889" offset="0"/><stop stop-color="#424242" offset="1"/></radialGradient><rect x="15.25" y="9.38" width="97.5" height="63.12" fill="url(#a)"/><line x1="16.39" x2="27.58" y1="6.99" y2="6.99" fill="none" stroke="#eee" stroke-linecap="round" stroke-miterlimit="10" stroke-width="3.0142"/></svg>

<?xml version="1.0" encoding="utf-8"?>
<!-- Generator: Adobe Illustrator 25.2.3, SVG Export Plug-In . SVG Version: 6.00 Build 0)  -->
<svg version="1.1" id="Layer_4" xmlns="http://www.w3.org/2000/svg" xmlns:xlink="http://www.w3.org/1999/xlink" x="0px" y="0px"
	 viewBox="0 0 128 128" style="enable-background:new 0 0 128 128;" xml:space="preserve">
<g>
	<path style="fill:#B7D5E5;" d="M71.59,68.58h-6.42h-6.42c0,20.36-4.21,28.52-4.21,28.52H75.8C75.8,97.09,71.59,88.93,71.59,68.58z"
		/>
	<path style="fill:#2F7889;" d="M39.41,98.17c-0.07-1.14,0.1-2.64,0.1-2.64s45.24-1.88,48.83-0.09c0,0,0.48,1.66,0.15,2.74
		c-0.79,2.53-10.99,4.8-24.55,4.8S39.57,100.82,39.41,98.17z"/>
	<ellipse style="fill:#B7D5E5;" cx="64" cy="95.96" rx="24.55" ry="4.8"/>
	<path style="fill:#69A1BA;" d="M71.59,68.58h-6.42h-6.42c0,6.64-0.45,11.98-1.05,16.16l15.31,2.3
		C72.23,82.57,71.59,76.5,71.59,68.58z"/>
	<path style="fill:#EEEEEE;" d="M55.49,91.46c0,0-3.72,1.52-2.88,2.63c1.3,1.74,4.93,2.83,13.71,3.42c6.17,0.41,3.75,2.13-2.05,2.48
		c-4.07,0.24-23.58,0.4-24.74-3.67C38.59,93.01,52.71,91.46,55.49,91.46z"/>
	<path style="fill:#EEEEEE;" d="M99.4,106.51H28.49c-0.97,0-1.94,0.54-2.48,1.4l-7.78,10.7c-0.72,0.98-0.01,2.36,1.2,2.36h89.13
		c1.22,0,1.92-1.38,1.2-2.36l-7.88-10.8C101.35,107.05,100.38,106.51,99.4,106.51z"/>
	<g style="opacity:0.57;">
		<polygon style="fill:#69A1BA;" points="35.61,111.26 30.75,111.26 31.4,110.08 36.26,110.08 		"/>
		<polygon style="fill:#69A1BA;" points="43.28,111.26 38.42,111.26 38.96,110.08 44.03,110.08 		"/>
		<polygon style="fill:#69A1BA;" points="50.62,111.26 45.65,111.26 46.41,110.08 51.26,110.08 		"/>
		<polygon style="fill:#69A1BA;" points="57.85,111.26 52.99,111.26 53.75,110.08 58.39,110.08 		"/>
		<polygon style="fill:#69A1BA;" points="65.08,111.26 60.11,111.26 60.55,110.08 64.65,110.08 		"/>
		<polygon style="fill:#69A1BA;" points="72.31,111.26 67.45,111.26 66.91,110.08 71.56,110.08 		"/>
		<polygon style="fill:#69A1BA;" points="79.87,111.26 74.9,111.26 74.04,110.08 78.9,110.08 		"/>
		<polygon style="fill:#69A1BA;" points="87.1,111.26 82.13,111.26 81.27,110.08 86.24,110.08 		"/>
		<polygon style="fill:#69A1BA;" points="96.92,111.26 89.47,111.26 88.61,110.08 96.17,110.08 		"/>
		<polygon style="fill:#69A1BA;" points="93.14,113.21 98,113.21 97.14,111.91 92.17,111.91 		"/>
		<polygon style="fill:#69A1BA;" points="85.16,113.21 90.01,113.21 89.04,111.91 84.18,111.91 		"/>
		<polygon style="fill:#69A1BA;" points="77.82,113.21 82.67,113.21 81.92,111.91 76.95,111.91 		"/>
		<polygon style="fill:#69A1BA;" points="69.94,113.21 74.79,113.21 73.93,111.91 69.29,111.91 		"/>
		<polygon style="fill:#69A1BA;" points="62.92,113.21 67.78,113.21 67.24,111.91 63.14,111.91 		"/>
		<polygon style="fill:#69A1BA;" points="55.9,113.21 60.76,113.21 61.09,111.91 56.34,111.91 		"/>
		<polygon style="fill:#69A1BA;" points="48.24,113.21 53.1,113.21 53.75,111.91 49,111.91 		"/>
		<polygon style="fill:#69A1BA;" points="39.61,113.21 44.57,113.21 45.33,111.91 40.36,111.91 		"/>
		<polygon style="fill:#69A1BA;" points="29.68,113.21 37.02,113.21 37.77,111.91 30.32,111.91 		"/>
		<polygon style="fill:#69A1BA;" points="76.09,115.15 81.05,115.15 80.19,113.85 75.23,113.85 		"/>
		<polygon style="fill:#69A1BA;" points="68.32,115.15 73.17,115.15 72.53,113.85 67.89,113.85 		"/>
		<polygon style="fill:#69A1BA;" points="59.03,115.15 64,115.15 63.89,113.85 59.47,113.85 		"/>
		<polygon style="fill:#69A1BA;" points="50.29,115.15 55.26,115.15 55.69,113.85 50.94,113.85 		"/>
		<polygon style="fill:#69A1BA;" points="41.12,115.15 45.97,115.15 46.73,113.85 41.87,113.85 		"/>
		<polygon style="fill:#69A1BA;" points="28.7,115.15 38.53,115.15 39.28,113.85 29.46,113.85 		"/>
		<polygon style="fill:#69A1BA;" points="84.4,115.15 99.08,115.15 98.22,113.85 83.54,113.85 		"/>
		<polygon style="fill:#69A1BA;" points="95.52,117.09 100.48,117.09 99.51,115.8 94.55,115.8 		"/>
		<polygon style="fill:#69A1BA;" points="86.45,117.09 91.31,117.09 90.34,115.8 85.48,115.8 		"/>
		<polygon style="fill:#69A1BA;" points="47.27,117.09 80.62,117.09 79.87,115.8 48.02,115.8 		"/>
		<polygon style="fill:#69A1BA;" points="36.8,117.09 41.76,117.09 42.3,115.8 37.55,115.8 		"/>
		<polygon style="fill:#69A1BA;" points="27.52,117.09 32.37,117.09 32.91,115.8 28.16,115.8 		"/>
	</g>
	<path style="fill:#2F7889;" d="M108.69,124H19.31c-0.88,0-1.64-0.76-1.64-1.62v-2.4h92.68v2.4C110.34,123.24,109.57,124,108.69,124
		z"/>
	<g>
		<path style="fill:#B7D5E5;" d="M99.4,107.52c0.61,0,1.3,0.36,1.67,0.88l8.22,11.27c0.05,0.06,0.05,0.13,0.02,0.2
			c-0.04,0.07-0.09,0.1-0.17,0.1H18.86c-0.08,0-0.13-0.03-0.17-0.1c-0.04-0.07-0.03-0.14,0.02-0.2l8.12-11.16l0.02-0.03l0.02-0.03
			c0.35-0.57,0.99-0.93,1.63-0.93H99.4 M99.4,106.51H28.49c-0.97,0-1.94,0.54-2.48,1.4l-8.12,11.16c-0.57,0.79-0.01,1.9,0.97,1.9
			h90.29c0.98,0,1.54-1.11,0.97-1.9l-8.22-11.27C101.35,107.05,100.38,106.51,99.4,106.51L99.4,106.51z"/>
	</g>
	<g>
		<path style="fill:#69A1BA;" d="M113.46,79.66H14.54c-1.9,0-3.44-1.54-3.44-3.44v-67c0-1.9,1.54-3.44,3.44-3.44h98.91
			c1.9,0,3.44,1.54,3.44,3.44v67C116.9,78.12,115.36,79.66,113.46,79.66z"/>
		<path style="fill:#B7D5E5;" d="M113.46,77.89H14.54c-1.9,0-3.44-1.54-3.44-3.44v-67c0-1.9,1.54-3.44,3.44-3.44h98.91
			c1.9,0,3.44,1.54,3.44,3.44v67C116.9,76.34,115.36,77.89,113.46,77.89z"/>
		<radialGradient id="SVGID_1_" cx="46.4654" cy="-5.1763" r="60.9731" gradientUnits="userSpaceOnUse">
			<stop  offset="0" style="stop-color:#2F7889"/>
			<stop  offset="1" style="stop-color:#424242"/>
		</radialGradient>
		<rect x="15.25" y="9.38" style="fill:url(#SVGID_1_);" width="97.5" height="63.12"/>
	</g>
	
		<line style="fill:none;stroke:#EEEEEE;stroke-width:3.0142;stroke-linecap:round;stroke-miterlimit:10;" x1="16.39" y1="6.99" x2="27.58" y2="6.99"/>
</g>
</svg>
